X: 555
T: Above And Beyond
R: hornpipe
M: 4/4
K: Fmajor
|:F2 GF AGGF|(3GAc (3cd/c/A dcAc|fF fd cFcd|cdAc AG (3_A/=A/cG|
F2 GF AGGF|(3GAc (3cd/c/A dcAc|fF fd cF (3cFA|1 (3GA/G/F (3FG/A/c (3fcB (3AB/A/G:|2 GFFG F2 (3FG/A/c||
|:f2 fe dc c2|AccA dc (3AGF|fF (3edc dccF|(3GAc cd cG(3_A/=A/cG|
F2 GF AGGF|(3GAc (3cd/c/A dcAc|fF fd cF (3cFA|1 GFFG F2 (3FG/A/c:|2 (3GA/G/F (3FG/A/c (3fcB (3AB/A/G||

